assets/icons/folder_icons/folder-models.svg

<?xml version="1.0" encoding="UTF-8"?><svg id="Layer_24_copy_4" xmlns="http://www.w3.org/2000/svg" xmlns:xlink="http://www.w3.org/1999/xlink" viewBox="0 0 14 14"><defs><style>.cls-1{fill:#fff;}.cls-2{fill:url(#linear-gradient);isolation:isolate;opacity:.723;}.cls-3{fill:#ff2020;}</style><linearGradient id="linear-gradient" x1="840.8598" y1="-1049.0094" x2="840.8598" y2="-1045.0094" gradientTransform="translate(-417.4304 -522.5047) scale(.5 -.5)" gradientUnits="userSpaceOnUse"><stop offset="0" stop-color="#000"/><stop offset="1" stop-color="#000" stop-opacity=".151"/></linearGradient></defs><path id="folder" class="cls-3" d="m.9995,0C.5281,0-.0005.5286-.0005,1v7c0,.4714.5286,1,1,1h10c.4714,0,1-.5286,1-1V2c0-.4714-.5286-1-1-1h-5C5.9995.5286,5.4709,0,4.9995,0H.9995Z"/><path id="tab" class="cls-2" d="m.9995,0C.5281,0-.0005.5286-.0005,1s.5286,1,1,1h4c.4714,0,1-.5286,1-1S5.4709,0,4.9995,0H.9995Z"/><g id="Layer_69"><path d="m8.4282,11.5c-2.4829,0-4.4282-1.3174-4.4282-3v-3.4062l1.707,1.707c.4009.4004,1.3262.8291,2.7212.8291,1.2241,0,2.3677-.5029,2.8647-1l1.707-1.707v3.5771c0,1.6543-2.0508,3-4.5718,3Z"/><path d="m8.5088,14.0166c-2.5283,0-4.5088-1.3252-4.5088-3.0166v-3.4141l1.707,1.707c.4873.4873,1.5425.9785,2.8018.9785,1.2471,0,2.2969-.4912,2.7842-.9785l1.707-1.707v3.4141c0,1.6914-1.9727,3.0166-4.4912,3.0166Z"/><path d="m8.5088,7.9336c-2.5283,0-4.5088-1.2891-4.5088-2.9336,0-1.626,2.0649-3,4.5088-3,2.4766,0,4.4912,1.3457,4.4912,3,0,1.6445-1.9727,2.9336-4.4912,2.9336Z"/><path class="cls-1" d="m4.9995,7.0077v.9923c0,1.0598,1.4961,2,3.4286,2s3.5718-.9402,3.5718-2v-1c-.6857.6857-2.0757,1.1298-3.5718,1.1298s-2.7429-.4364-3.4286-1.1221Z"/><path class="cls-1" d="m5,10v1c0,1.0598,1.5762,2.0163,3.5087,2.0163s3.4913-.9565,3.4913-2.0163v-1c-.6857.6857-1.9951,1.2717-3.4913,1.2717s-2.823-.586-3.5087-1.2717Z"/><path class="cls-1" d="m8.5087,3c1.8936,0,3.4913.9671,3.4913,2s-1.5977,1.9332-3.4913,1.9332-3.5087-.9003-3.5087-1.9332,1.6152-2,3.5087-2Z"/></g></svg>

<svg xmlns="http://www.w3.org/2000/svg" viewBox="0 0 14 14"><defs><linearGradient id="a" x1="840.86" x2="840.86" y1="-1049.009" y2="-1045.009" gradientTransform="matrix(.5 0 0 -.5 -417.43 -522.505)" gradientUnits="userSpaceOnUse"><stop offset="0"/><stop offset="1" stop-opacity=".151"/></linearGradient></defs><path fill="#ff2020" d="M1 0C.528 0 0 .529 0 1v7c0 .471.528 1 1 1h10c.47 0 1-.529 1-1V2c0-.471-.53-1-1-1H6c0-.471-.53-1-1-1z"/><path fill="url(#a)" d="M1 0C.528 0 0 .529 0 1s.528 1 1 1h4c.47 0 1-.529 1-1s-.53-1-1-1z" opacity=".723" style="isolation:isolate"/><path d="M8.509 14.017C5.98 14.017 4 12.69 4 11V5c0-1.626 2.065-3 4.509-3C10.985 2 13 3.346 13 5v6c0 1.691-1.973 3.017-4.491 3.017"/><path fill="#fff" d="M5 7.008V8c0 1.06 1.496 2 3.428 2S12 9.06 12 8V7c-.686.686-2.076 1.13-3.572 1.13S5.685 7.693 5 7.008M5 10v1c0 1.06 1.576 2.016 3.509 2.016S12 12.06 12 11v-1c-.686.686-1.995 1.272-3.491 1.272S5.686 10.686 5 10m3.509-7C10.402 3 12 3.967 12 5s-1.598 1.933-3.491 1.933S5 6.033 5 5s1.615-2 3.509-2"/></svg>
